X:2
T:Shenandoah Falls
S:Bernie Waugh
R:reel
F:http://www.math.dartmouth.edu/~doyle/docs/waugh/w1.abc
S:Printed page from Debby Knight
M:4/4
L:1/8
K:A
   cd |\
"A"e2ef edcB | ABcA     "D"d4   | "A"cBcd "E"cBAc | "A"BAFD E2cd |\
"A"e2ef edcB | AB (3cBA "D"d2d2 | "A"cBAc "E"BAGB | "A"A3B  A2  :|
|: G2 |\
"Bm"F4 B4 | BABA- AAB2 | "A"z2cA    BcAB |    cABc- cBA2 |\
"Bm"F4 B4 | BcBA  Bfed | "D"cBAc "E"BAGB | "A"A4    A2  :|
